X: 440
T:Josefin's Waltz
M:3/4
L:1/4
Q:100
C:Roger Tallroth
R:Waltz
N:Posted to the woodenflute mailing list October 2001
D:Swallowtail: After the Dance
Z:mvhp (Marguerite Plank ) 11/28/99
K:C
"C"G c d|e g f|e d c|G2 A|"F"F2 F/2F/2|A c&gt;B|A3|"G"G3|!
"C"G c d|e g f|e d c|G2 A|"F"F2 F/2F/2|A B c|"G"d3
|1 d3:|2 d2||!
|:e/2f/2|"C"g e g|c'2 b|"F"a3|"C"g3|"F"f a g|f e d|"C"e2 f/2e/2|
"G"def|!
"C"g e g|c'2 b|"F"a3|"C"g3|"F"f a g|f e d|"C"e2 f/2e/2|"G"def|
"Am"edc|!
B3|"F"c2 c|F G F|"C"E G c|"G"B A B|1 "F"(c3|c2):|2 "F"(c3|c3)|!
<end>
<start>
